;FLAVOR:Marlin
;TIME:3245
;Filament used: 4.85959m
;Layer height: 0.32
;MINX:21.23
;MINY:16.08
;MINZ:0.384
;MAXX:33.36
;MAXY:190.522
;MAXZ:45.424
;Generated with Cura_SteamEngine 5.3.0
M82 ;absolute extrusion mode
G21 ; set units to millimeters
G90 ; use absolute positioning
M82 ; absolute extrusion mode
M104 S230 ; set extruder temp
M140 S85 ; set bed temp
M190 S85 ; wait for bed temp
M109 S230 ; wait for extruder temp
G28 W ; home all without mesh bed level
G80 ; mesh bed leveling
G92 E0.0 ; reset extruder distance position
G1 Y-3.0 F1000.0 ; go outside print area
G1 X60.0 E9.0 F1000.0 ; intro line
G1 X100.0 E21.5 F1000.0 ; intro line
G92 E0.0 ; reset extruder distance position
G92 E0
G92 E0
G1 F2100 E-0.8
;LAYER_COUNT:137
;LAYER:-5
M107
M204 S5000
G0 F9000 X24.277 Y17.702 Z0.384
M204 S500
;TYPE:SUPPORT-INTERFACE
G1 F2100 E0
G1 F1350 X24.572 Y17.315 E0.06215
G1 X24.925 Y16.96 E0.12609
G1 X25.462 Y16.554 E0.21207
G1 X26.074 Y16.285 E0.29745
G1 X26.523 Y16.153 E0.35723
G1 X27.065 Y16.08 E0.42707
G1 X27.565 Y16.084 E0.49094
G1 X28.167 Y16.173 E0.56866
G1 X28.886 Y16.435 E0.66639
G1 X29.523 Y16.844 E0.76308
G1 X29.957 Y17.265 E0.8403
G1 X30.258 Y17.646 E0.90232
G1 X30.577 Y18.2 E0.98396
G1 X30.823 Y18.997 E1.0905
G1 X33.287 Y31.652 E2.73713
G1 X33.36 Y32.381 E2.8307
G1 X33.36 Y157.692 E18.83529
G1 X33.288 Y158.429 E18.92987
G1 X30.838 Y170.999 E20.5655
G1 X30.622 Y171.741 E20.6642
G1 X30.408 Y172.187 E20.72738
G1 X30.066 Y172.696 E20.8057
G1 X29.522 Y173.243 E20.90423
G1 X28.946 Y173.596 E20.99052
G1 X28.491 Y173.795 E21.05394
G1 X27.945 Y173.953 E21.12654
G1 X27.316 Y174.003 E21.20713
G1 X26.619 Y173.96 E21.29632
G1 X25.905 Y173.734 E21.39197
G1 X25.233 Y173.377 E21.48915
G1 X24.668 Y172.881 E21.58518
G1 X24.311 Y172.427 E21.65894
G1 X24.064 Y171.996 E21.72239
G1 X23.921 Y171.639 E21.7715
G1 X23.724 Y170.948 E21.86327
G1 X21.301 Y158.422 E23.49274
G1 X21.23 Y157.696 E23.5859
G1 X21.23 Y32.38 E39.59113
G1 X21.304 Y31.647 E39.68522
G1 X23.786 Y18.808 E41.35536
G1 X24.021 Y18.173 E41.44184
G1 X24.277 Y17.702 E41.51031
M204 S5000
G0 F9000 X24.653 Y17.865
M204 S500
G1 F1350 X31.534 Y24.745 E42.75308
M204 S5000
G0 F9000 X32.081 Y27.555
M204 S500
G1 F1350 X24.052 Y19.526 E44.20329
M204 S5000
G0 F9000 X23.685 Y21.423
M204 S500
G1 F1350 X32.628 Y30.365 E45.8185
M204 S5000
G0 F9000 X32.959 Y32.959
M204 S500
G1 F1350 X23.319 Y23.319 E47.55969
M204 S5000
G0 F9000 X22.953 Y25.216
M204 S500
G1 F1350 X32.959 Y35.222 E49.367
M204 S5000
G0 F9000 X32.959 Y37.485
M204 S500
G1 F1350 X22.587 Y27.112 E51.2405
M204 S5000
G0 F9000 X22.22 Y29.009
M204 S500
G1 F1350 X32.959 Y39.747 E53.1801
M204 S5000
G0 F9000 X32.959 Y42.01
M204 S500
G1 F1350 X21.854 Y30.905 E55.18591
M204 S5000
G0 F9000 X21.629 Y32.943
M204 S500
G1 F1350 X32.959 Y44.273 E57.23235
M204 S5000
G0 F9000 X32.959 Y46.536
M204 S500
G1 F1350 X21.629 Y35.206 E59.2788
M204 S5000
G0 F9000 X21.629 Y37.468
M204 S500
G1 F1350 X32.959 Y48.798 E61.32525
M204 S5000
G0 F9000 X32.959 Y51.061
M204 S500
G1 F1350 X21.629 Y39.731 E63.37169
M204 S5000
G0 F9000 X21.629 Y41.994
M204 S500
G1 F1350 X32.959 Y53.324 E65.41814
M204 S5000
G0 F9000 X32.959 Y55.587
M204 S500
G1 F1350 X21.629 Y44.257 E67.46458
M204 S5000
G0 F9000 X21.629 Y46.519
M204 S500
G1 F1350 X32.959 Y57.849 E69.51103
M204 S5000
G0 F9000 X32.959 Y60.112
M204 S500
G1 F1350 X21.629 Y48.782 E71.55747
M204 S5000
G0 F9000 X21.629 Y51.045
M204 S500
G1 F1350 X32.959 Y62.375 E73.60392
M204 S5000
G0 F9000 X32.959 Y64.638
M204 S500
G1 F1350 X21.629 Y53.308 E75.65036
M204 S5000
G0 F9000 X21.629 Y55.57
M204 S500
G1 F1350 X32.959 Y66.9 E77.69681
M204 S5000
G0 F9000 X32.959 Y69.163
M204 S500
G1 F1350 X21.629 Y57.833 E79.74325
M204 S5000
G0 F9000 X21.629 Y60.096
M204 S500
G1 F1350 X32.959 Y71.426 E81.7897
M204 S5000
G0 F9000 X32.959 Y73.689
M204 S500
G1 F1350 X21.629 Y62.359 E83.83614
M204 S5000
G0 F9000 X21.629 Y64.621
M204 S500
G1 F1350 X32.959 Y75.951 E85.88259
M204 S5000
G0 F9000 X32.959 Y78.214
M204 S500
G1 F1350 X21.629 Y66.884 E87.92903
M204 S5000
G0 F9000 X21.629 Y69.147
M204 S500
G1 F1350 X32.959 Y80.477 E89.97548
M204 S5000
G0 F9000 X32.959 Y82.739
M204 S500
G1 F1350 X21.629 Y71.41 E92.02183
M204 S5000
G0 F9000 X21.629 Y73.672
M204 S500
G1 F1350 X32.959 Y85.002 E94.06828
M204 S5000
G0 F9000 X32.959 Y87.265
M204 S500
G1 F1350 X21.629 Y75.935 E96.11472
M204 S5000
G0 F9000 X21.629 Y78.198
M204 S500
G1 F1350 X32.959 Y89.528 E98.16117
M204 S5000
G0 F9000 X32.959 Y91.79
M204 S500
G1 F1350 X21.629 Y80.46 E100.20762
M204 S5000
G0 F9000 X21.629 Y82.723
M204 S500
G1 F1350 X32.959 Y94.053 E102.25406
M204 S5000
G0 F9000 X32.959 Y96.316
M204 S500
G1 F1350 X21.629 Y84.986 E104.30051
M204 S5000
G0 F9000 X21.629 Y87.249
M204 S500
G1 F1350 X32.959 Y98.579 E106.34695
M204 S5000
G0 F9000 X32.959 Y100.841
M204 S500
G1 F1350 X21.629 Y89.511 E108.3934
M204 S5000
G0 F9000 X21.629 Y91.774
M204 S500
G1 F1350 X32.959 Y103.104 E110.43984
M204 S5000
G0 F9000 X32.959 Y105.367
M204 S500
G1 F1350 X21.629 Y94.037 E112.48629
M204 S5000
G0 F9000 X21.629 Y96.3
M204 S500
G1 F1350 X32.959 Y107.63 E114.53273
M204 S5000
G0 F9000 X32.959 Y109.892
M204 S500
G1 F1350 X21.629 Y98.562 E116.57918
M204 S5000
G0 F9000 X21.629 Y100.825
M204 S500
G1 F1350 X32.959 Y112.155 E118.62562
M204 S5000
G0 F9000 X32.959 Y114.418
M204 S500
G1 F1350 X21.629 Y103.088 E120.67207
M204 S5000
G0 F9000 X21.629 Y105.351
M204 S500
G1 F1350 X32.959 Y116.681 E122.71851
M204 S5000
G0 F9000 X32.959 Y118.943
M204 S500
G1 F1350 X21.629 Y107.613 E124.76496
M204 S5000
G0 F9000 X21.629 Y109.876
M204 S500
G1 F1350 X32.959 Y121.206 E126.8114
M204 S5000
G0 F9000 X32.959 Y123.469
M204 S500
G1 F1350 X21.629 Y112.139 E128.85785
M204 S5000
G0 F9000 X21.629 Y114.402
M204 S500
G1 F1350 X32.959 Y125.732 E130.90429
M204 S5000
G0 F9000 X32.959 Y127.994
M204 S500
G1 F1350 X21.629 Y116.664 E132.95074
M204 S5000
G0 F9000 X21.629 Y118.927
M204 S500
G1 F1350 X32.959 Y130.257 E134.99719
M204 S5000
G0 F9000 X32.959 Y132.52
M204 S500
G1 F1350 X21.629 Y121.19 E137.04363
M204 S5000
G0 F9000 X21.629 Y123.453
M204 S500
G1 F1350 X32.959 Y134.783 E139.09008
M204 S5000
G0 F9000 X32.959 Y137.045
M204 S500
G1 F1350 X21.629 Y125.715 E141.13652
M204 S5000
G0 F9000 X21.629 Y127.978
M204 S500
G1 F1350 X32.959 Y139.308 E143.18297
M204 S5000
G0 F9000 X32.959 Y141.571
M204 S500
G1 F1350 X21.629 Y130.241 E145.22941
M204 S5000
G0 F9000 X21.629 Y132.504
M204 S500
G1 F1350 X32.959 Y143.834 E147.27586
M204 S5000
G0 F9000 X32.959 Y146.096
M204 S500
G1 F1350 X21.629 Y134.766 E149.3223
M204 S5000
G0 F9000 X21.629 Y137.029
M204 S500
G1 F1350 X32.959 Y148.359 E151.36875
M204 S5000
G0 F9000 X32.959 Y150.622
M204 S500
G1 F1350 X21.629 Y139.292 E153.41519
M204 S5000
G0 F9000 X21.629 Y141.554
M204 S500
G1 F1350 X32.959 Y152.884 E155.46164
M204 S5000
G0 F9000 X32.959 Y155.147
M204 S500
G1 F1350 X21.629 Y143.817 E157.50808
M204 S5000
G0 F9000 X21.629 Y146.08
M204 S500
G1 F1350 X32.959 Y157.41 E159.55453
M204 S5000
G0 F9000 X32.69 Y159.404
M204 S500
G1 F1350 X21.629 Y148.343 E161.55239
M204 S5000
G0 F9000 X21.629 Y150.605
M204 S500
G1 F1350 X32.321 Y161.298 E163.48369
M204 S5000
G0 F9000 X31.952 Y163.191
M204 S500
G1 F1350 X21.629 Y152.868 E165.34825
M204 S5000
G0 F9000 X21.629 Y155.131
M204 S500
G1 F1350 X31.583 Y165.085 E167.14615
M204 S5000
G0 F9000 X31.214 Y166.979
M204 S500
G1 F1350 X21.629 Y157.394 E168.87741
M204 S5000
G0 F9000 X22.023 Y160.05
M204 S500
G1 F1350 X30.845 Y168.872 E170.47086
M204 S5000
G0 F9000 X30.476 Y170.766
M204 S500
G1 F1350 X22.565 Y162.855 E171.89976
M204 S5000
G0 F9000 X23.108 Y165.66
M204 S500
G1 F1350 X29.808 Y172.361 E173.11002
M204 S5000
G0 F9000 X28.526 Y173.342
M204 S500
G1 F1350 X23.65 Y168.466 E173.99073
M204 S5000
G0 F9000 X24.248 Y171.326
M204 S500
G1 F1350 X26.387 Y173.465 E174.37708
M204 S5000
G0 F9000 X30.986 Y21.935
M204 S500
G1 F1350 X25.865 Y16.814 E175.30204
M204 S5000
G0 F9000 X27.843 Y16.53
M104 S230
M204 S500
G1 F1350 X30.439 Y19.125 E175.77085
M204 S5000
G0 F300 X30.439 Y19.125 Z0.864
G0 F9000 X23.991 Y19.849
;TIME_ELAPSED:70.536677
;LAYER:-4
M204 S500
;TYPE:SUPPORT
G1 F1350 X27.36 Y16.48 E176.53149
G1 X26.642 Y16.537 E176.64648
G1 X26.201 Y16.662 E176.71966
G1 X25.802 Y16.839 E176.78934
G1 X25.18 Y17.266 E176.90979
G1 X24.757 Y17.718 E177.00862
G1 X24.515 Y18.08 E177.07814
G1 X24.327 Y18.469 E177.14712
G1 X24.125 Y19.151 E177.26067
G1 X23.652 Y21.602 E177.65919
G1 X28.528 Y16.725 E178.7602
G1 X28.704 Y16.789 E178.79009
G1 X29.21 Y17.117 E178.88636
G1 X29.393 Y17.276 E178.92507
G1 X23.313 Y23.355 E180.29768
G1 X22.974 Y25.108 E180.58273
G1 X30.026 Y18.056 E182.17491
G1 X30.208 Y18.35 E182.23011
G1 X30.419 Y19.077 E182.35097
G1 X22.635 Y26.861 E184.10842
G1 X22.297 Y28.614 E184.39344
G1 X30.659 Y20.252 E186.28138
G1 X30.889 Y21.435 E186.47379
G1 X21.957 Y30.368 E188.49054
G1 X21.695 Y31.725 E188.71119
G1 X21.661 Y32.078 E188.7678
G1 X31.12 Y22.619 E190.90343
G1 X31.35 Y23.803 E191.09599
G1 X21.629 Y33.524 E193.29077
G1 X21.629 Y34.938 E193.51651
G1 X31.581 Y24.987 E195.76333
G1 X31.812 Y26.17 E195.95576
G1 X21.629 Y36.353 E198.25486
G1 X21.629 Y37.767 E198.4806
G1 X32.042 Y27.354 E200.83162
G1 X32.273 Y28.538 E201.02421
G1 X21.629 Y39.181 E203.42727
G1 X21.629 Y40.595 E203.65301
G1 X32.503 Y29.721 E206.10811
G1 X32.734 Y30.904 E206.30054
G1 X21.629 Y42.009 E208.8078
G1 X21.629 Y43.424 E209.0337
G1 X32.932 Y32.121 E211.58566
G1 X32.958 Y32.405 E211.63119
G1 X32.958 Y33.509 E211.80744
G1 X21.629 Y44.838 E214.36528
G1 X21.629 Y46.252 E214.59102
G1 X32.958 Y34.923 E217.14885
G1 X32.958 Y36.337 E217.37459
G1 X21.629 Y47.666 E219.93242
G1 X21.629 Y49.08 E220.15817
G1 X32.958 Y37.751 E222.716
G1 X32.958 Y39.165 E222.94174
G1 X21.629 Y50.495 E225.49968
G1 X21.629 Y51.909 E225.72543
G1 X32.958 Y40.58 E228.28326
G1 X32.958 Y41.994 E228.509
G1 X21.629 Y53.323 E231.06683
G1 X21.629 Y54.737 E231.29258
G1 X32.958 Y43.408 E233.85041
G1 X32.958 Y44.822 E234.07615
G1 X21.629 Y56.152 E236.63409
G1 X21.629 Y57.566 E236.85984
G1 X32.958 Y46.237 E239.41767
G1 X32.958 Y47.651 E239.64341
G1 X21.629 Y58.98 E242.20124
G1 X21.629 Y60.394 E242.42698
G1 X32.958 Y49.065 E244.98482
G1 X32.958 Y50.479 E245.21056
G1 X21.629 Y61.808 E247.76839
G1 X21.629 Y63.223 E247.99429
G1 X32.958 Y51.893 E250.55224
G1 X32.958 Y53.308 E250.77814
G1 X21.629 Y64.637 E253.33597
G1 X21.629 Y66.051 E253.56171
G1 X32.958 Y54.722 E256.11954
G1 X32.958 Y56.136 E256.34529
G1 X21.629 Y67.465 E258.90312
G1 X21.629 Y68.879 E259.12886
G1 X32.958 Y57.55 E261.68669
G1 X32.958 Y58.964 E261.91243
G1 X21.629 Y70.294 E264.47038
G1 X21.629 Y71.708 E264.69612
G1 X32.958 Y60.379 E267.25395
G1 X32.958 Y61.793 E267.4797
G1 X21.629 Y73.122 E270.03753
G1 X21.629 Y74.536 E270.26327
G1 X32.958 Y63.207 E272.8211
G1 X32.958 Y64.621 E273.04684
G1 X21.629 Y75.951 E275.60479
G1 X21.629 Y77.365 E275.83053
G1 X32.958 Y66.035 E278.38847
G1 X32.958 Y67.45 E278.61438
G1 X21.629 Y78.779 E281.17221
G1 X21.629 Y80.193 E281.39795
G1 X32.958 Y68.864 E283.95578
G1 X32.958 Y70.278 E284.18153
G1 X21.629 Y81.607 E286.73936
G1 X21.629 Y83.022 E286.96526
G1 X32.958 Y71.692 E289.5232
G1 X32.958 Y73.107 E289.74911
G1 X21.629 Y84.436 E292.30694
G1 X21.629 Y85.85 E292.53268
G1 X32.959 Y74.52 E295.09074
G1 X32.959 Y75.934 E295.31648
G1 X21.629 Y87.264 E297.87454
G1 X21.629 Y88.678 E298.10028
G1 X32.959 Y77.348 E300.65834
G1 X32.959 Y78.763 E300.88424
G1 X21.629 Y90.093 E303.4423
G1 X21.629 Y91.507 E303.66804
G1 X32.959 Y80.177 E306.2261
G1 X32.959 Y81.591 E306.45184
G1 X21.629 Y92.921 E309.0099
G1 X21.629 Y94.335 E309.23564
G1 X32.959 Y83.005 E311.79369
G1 X32.959 Y84.42 E312.0196
G1 X21.629 Y95.75 E314.57765
G1 X21.629 Y97.164 E314.8034
G1 X32.959 Y85.834 E317.36145
G1 X32.959 Y87.248 E317.5872
G1 X21.629 Y98.578 E320.14525
G1 X21.629 Y99.992 E320.371
G1 X32.959 Y88.662 E322.92905
G1 X32.959 Y90.076 E323.1548
G1 X21.629 Y101.406 E325.71285
G1 X21.629 Y102.821 E325.93876
G1 X32.959 Y91.491 E328.49681
G1 X32.959 Y92.905 E328.72256
G1 X21.629 Y104.235 E331.28061
G1 X21.629 Y105.649 E331.50636
G1 X32.959 Y94.319 E334.06441
G1 X32.959 Y95.733 E334.29016
G1 X21.629 Y107.063 E336.84821
G1 X21.629 Y108.477 E337.07396
G1 X32.959 Y97.147 E339.63201
G1 X32.959 Y98.562 E339.85792
G1 X21.629 Y109.892 E342.41597
G1 X21.629 Y111.306 E342.64171
G1 X32.959 Y99.976 E345.19977
G1 X32.959 Y101.39 E345.42551
G1 X21.629 Y112.72 E347.98357
G1 X21.629 Y114.134 E348.20931
G1 X32.959 Y102.804 E350.76737
G1 X32.959 Y104.219 E350.99327
G1 X21.629 Y115.549 E353.55133
G1 X21.629 Y116.963 E353.77707
G1 X32.959 Y105.633 E356.33513
G1 X32.959 Y107.047 E356.56087
G1 X21.629 Y118.377 E359.11893
G1 X21.629 Y119.791 E359.34467
G1 X32.959 Y108.461 E361.90273
G1 X32.959 Y109.875 E362.12847
G1 X21.629 Y121.205 E364.68653
G1 X21.629 Y122.62 E364.91243
G1 X32.959 Y111.29 E367.47049
G1 X32.959 Y112.704 E367.69623
G1 X21.629 Y124.034 E370.25429
G1 X21.629 Y125.448 E370.48003
G1 X32.959 Y114.118 E373.03809
G1 X32.959 Y115.532 E373.26383
G1 X21.629 Y126.862 E375.82189
G1 X21.629 Y128.276 E376.04763
G1 X32.96 Y116.946 E378.6058
G1 X32.96 Y118.36 E378.83154
G1 X21.629 Y129.691 E381.38983
G1 X21.629 Y131.105 E381.61557
G1 X32.96 Y119.774 E384.17385
G1 X32.96 Y121.188 E384.3996
G1 X21.629 Y132.519 E386.95788
G1 X21.629 Y133.933 E387.18362
G1 X32.96 Y122.603 E389.74179
G1 X32.96 Y124.017 E389.96753
G1 X21.629 Y135.348 E392.52582
G1 X21.629 Y136.762 E392.75156
G1 X32.96 Y125.431 E395.30984
G1 X32.96 Y126.845 E395.53559
G1 X21.629 Y138.176 E398.09387
G1 X21.629 Y139.59 E398.31961
G1 X32.96 Y128.259 E400.87789
G1 X32.96 Y129.674 E401.1038
G1 X21.629 Y141.004 E403.66197
G1 X21.629 Y142.419 E403.88787
G1 X32.96 Y131.088 E406.44615
G1 X32.96 Y132.502 E406.67189
G1 X21.629 Y143.833 E409.23018
G1 X21.629 Y145.247 E409.45592
G1 X32.96 Y133.916 E412.0142
G1 X32.96 Y135.331 E412.2401
G1 X21.629 Y146.661 E414.79827
G1 X21.629 Y148.075 E415.02402
G1 X32.96 Y136.745 E417.58219
G1 X32.96 Y138.159 E417.80793
G1 X21.629 Y149.49 E420.36621
G1 X21.629 Y150.904 E420.59196
G1 X32.96 Y139.573 E423.15024
G1 X32.96 Y140.987 E423.37598
G1 X21.629 Y152.318 E425.93426
G1 X21.629 Y153.732 E426.16001
G1 X32.96 Y142.402 E428.71818
G1 X32.96 Y143.816 E428.94392
G1 X21.629 Y155.147 E431.5022
G1 X21.629 Y156.561 E431.72795
G1 X32.96 Y145.23 E434.28623
G1 X32.96 Y146.644 E434.51197
G1 X21.66 Y157.945 E437.06337
G1 X21.691 Y158.333 E437.12551
G1 X21.852 Y159.166 E437.26096
G1 X32.96 Y148.058 E439.76889
G1 X32.96 Y149.473 E439.99479
G1 X22.082 Y160.351 E442.4508
G1 X22.311 Y161.536 E442.64348
G1 X32.96 Y150.887 E445.04779
G1 X32.96 Y152.301 E445.27353
G1 X22.54 Y162.721 E447.62613
G1 X22.769 Y163.906 E447.81881
G1 X32.96 Y153.715 E450.11971
G1 X32.96 Y155.13 E450.34561
G1 X22.998 Y165.091 E452.59469
G1 X23.227 Y166.276 E452.78737
G1 X32.96 Y156.544 E454.98475
G1 X32.961 Y157.672 E455.16484
G1 X32.93 Y157.988 E455.21553
G1 X23.457 Y167.461 E457.35432
G1 X23.686 Y168.646 E457.547
G1 X32.632 Y159.7 E459.5668
G1 X32.29 Y161.457 E459.85257
G1 X23.915 Y169.831 E461.74334
G1 X24.144 Y171.016 E461.93603
G1 X31.947 Y163.213 E463.69777
G1 X31.605 Y164.97 E463.98353
G1 X24.527 Y172.048 E465.58158
G1 X24.954 Y172.601 E465.69313
G1 X25.185 Y172.804 E465.74222
G1 X31.262 Y166.727 E467.11427
G1 X30.92 Y168.483 E467.39988
G1 X26.052 Y173.351 E468.49896
G1 X26.415 Y173.482 E468.56058
G1 X26.868 Y173.576 E468.63444
G1 X27.221 Y173.596 E468.69088
G1 X30.578 Y170.24 E469.4487
G1 X30.392 Y171.19 E469.60325
G1 X30.186 Y171.742 E469.69731
G1 X29.96 Y172.151 E469.77191
G1 X29.709 Y172.489 E469.83913
G1 X29.385 Y172.812 E469.91217
G1 X28.753 Y173.244 E470.03438
G1 X28.195 Y173.471 E470.13056
G1 X27.768 Y173.567 E470.20043
G1 X27.314 Y173.601 E470.27311
M204 S5000
G0 F300 X27.314 Y173.601 Z1.184
G0 F9000 X24.954 Y172.601
;TIME_ELAPSED:156.503513
;LAYER:-3
M204 S500
;TYPE:SUPPORT-INTERFACE
G1 F1800 X25.358 Y172.954 E470.30166
G1 X25.858 Y173.28 E470.33343
G1 X26.397 Y173.475 E470.36393
G1 X24.245 Y171.323 E470.52589
G1 X24.057 Y170.57 E470.56719
G1 X27.075 Y173.587 E470.79428
G1 X27.63 Y173.577 E470.82382
G1 X23.922 Y169.868 E471.10292
G1 X23.786 Y169.167 E471.14092
G1 X28.109 Y173.49 E471.46627
