;FLAVOR:Marlin
;TIME:3243
;Filament used: 4.85916m
;Layer height: 0.32
;MINX:118.887
;MINY:16.08
;MINZ:0.384
;MAXX:131.017
;MAXY:190.522
;MAXZ:45.424
;Generated with Cura_SteamEngine 5.3.0
M82 ;absolute extrusion mode
G21 ; set units to millimeters
G90 ; use absolute positioning
M82 ; absolute extrusion mode
M104 S230 ; set extruder temp
M140 S85 ; set bed temp
M190 S85 ; wait for bed temp
M109 S230 ; wait for extruder temp
G28 W ; home all without mesh bed level
G80 ; mesh bed leveling
G92 E0.0 ; reset extruder distance position
G1 Y-3.0 F1000.0 ; go outside print area
G1 X60.0 E9.0 F1000.0 ; intro line
G1 X100.0 E21.5 F1000.0 ; intro line
G92 E0.0 ; reset extruder distance position
G92 E0
G92 E0
G1 F2100 E-0.8
;LAYER_COUNT:137
;LAYER:-5
M107
M204 S5000
G0 F9000 X121.443 Y18.806 Z0.384
M204 S500
;TYPE:SUPPORT-INTERFACE
G1 F2100 E0
G1 F1350 X121.679 Y18.173 E0.08628
G1 X121.934 Y17.702 E0.15469
G1 X122.229 Y17.315 E0.21684
G1 X122.701 Y16.84 E0.30236
G1 X123.272 Y16.487 E0.3881
G1 X123.736 Y16.283 E0.45284
G1 X124.186 Y16.152 E0.5127
G1 X124.721 Y16.08 E0.58164
G1 X125.222 Y16.084 E0.64563
G1 X125.824 Y16.173 E0.72335
G1 X126.544 Y16.435 E0.82121
G1 X127.174 Y16.841 E0.91694
G1 X127.619 Y17.27 E0.99588
G1 X127.917 Y17.649 E1.05746
G1 X128.155 Y18.064 E1.11856
G1 X128.307 Y18.435 E1.16976
G1 X128.503 Y19.117 E1.26039
G1 X130.944 Y31.652 E2.89142
G1 X131.017 Y32.381 E2.985
G1 X131.017 Y157.692 E18.98958
G1 X130.945 Y158.429 E19.08416
G1 X128.495 Y170.999 E20.7198
G1 X128.279 Y171.741 E20.8185
G1 X128.021 Y172.282 E20.89505
G1 X127.664 Y172.757 E20.97094
G1 X127.18 Y173.242 E21.05845
G1 X126.603 Y173.596 E21.14491
G1 X126.148 Y173.795 E21.20833
G1 X125.602 Y173.953 E21.28093
G1 X124.973 Y174.003 E21.36152
G1 X124.276 Y173.96 E21.45071
G1 X123.562 Y173.734 E21.54636
G1 X122.89 Y173.377 E21.64355
G1 X122.325 Y172.881 E21.73957
G1 X121.967 Y172.425 E21.81361
G1 X121.721 Y171.996 E21.87677
G1 X121.577 Y171.637 E21.92617
G1 X121.38 Y170.941 E22.01856
G1 X118.961 Y158.432 E23.64579
G1 X118.887 Y157.698 E23.74001
G1 X118.888 Y32.38 E39.74549
G1 X118.962 Y31.647 E39.83959
G1 X121.443 Y18.806 E41.50996
M204 S5000
G0 F9000 X122.177 Y18.091
M204 S500
G1 F1350 X129.278 Y25.192 E42.79255
M204 S5000
G0 F9000 X128.731 Y22.382
M204 S500
G1 F1350 X123.293 Y16.944 E43.77477
M204 S5000
G0 F9000 X125.094 Y16.483
M204 S500
G1 F1350 X128.184 Y19.572 E44.33281
M204 S5000
G0 F9000 X121.651 Y19.827
M204 S500
G1 F1350 X129.826 Y28.002 E45.80939
M204 S5000
G0 F9000 X130.372 Y30.812
M204 S500
G1 F1350 X121.285 Y21.724 E47.45079
M204 S5000
G0 F9000 X120.918 Y23.62
M204 S500
G1 F1350 X130.617 Y33.319 E49.20264
M204 S5000
G0 F9000 X130.617 Y35.582
M204 S500
G1 F1350 X120.552 Y25.517 E51.0206
M204 S5000
G0 F9000 X120.186 Y27.413
M204 S500
G1 F1350 X130.617 Y37.845 E52.90476
M204 S5000
G0 F9000 X130.617 Y40.107
M204 S500
G1 F1350 X119.819 Y29.31 E54.85502
M204 S5000
G0 F9000 X119.453 Y31.206
M204 S500
G1 F1350 X130.617 Y42.37 E56.87148
M204 S5000
G0 F9000 X130.617 Y44.633
M204 S500
G1 F1350 X119.286 Y33.302 E58.91811
M204 S5000
G0 F9000 X119.286 Y35.565
M204 S500
G1 F1350 X130.617 Y46.896 E60.96473
M204 S5000
G0 F9000 X130.617 Y49.158
M204 S500
G1 F1350 X119.286 Y37.828 E63.01127
M204 S5000
G0 F9000 X119.286 Y40.09
M204 S500
G1 F1350 X130.617 Y51.421 E65.0579
M204 S5000
G0 F9000 X130.617 Y53.684
M204 S500
G1 F1350 X119.286 Y42.353 E67.10452
M204 S5000
G0 F9000 X119.286 Y44.616
M204 S500
G1 F1350 X130.617 Y55.946 E69.15106
M204 S5000
G0 F9000 X130.617 Y58.209
M204 S500
G1 F1350 X119.286 Y46.879 E71.19759
M204 S5000
G0 F9000 X119.286 Y49.141
M204 S500
G1 F1350 X130.617 Y60.472 E73.24422
M204 S5000
G0 F9000 X130.617 Y62.735
M204 S500
G1 F1350 X119.286 Y51.404 E75.29084
M204 S5000
G0 F9000 X119.286 Y53.667
M204 S500
G1 F1350 X130.617 Y64.997 E77.33738
M204 S5000
G0 F9000 X130.617 Y67.26
M204 S500
G1 F1350 X119.286 Y55.93 E79.38392
M204 S5000
G0 F9000 X119.286 Y58.192
M204 S500
G1 F1350 X130.617 Y69.523 E81.43054
M204 S5000
G0 F9000 X130.617 Y71.786
M204 S500
G1 F1350 X119.286 Y60.455 E83.47717
M204 S5000
G0 F9000 X119.286 Y62.718
M204 S500
G1 F1350 X130.617 Y74.048 E85.5237
M204 S5000
G0 F9000 X130.617 Y76.311
M204 S500
G1 F1350 X119.286 Y64.98 E87.57033
M204 S5000
G0 F9000 X119.286 Y67.243
M204 S500
G1 F1350 X130.617 Y78.574 E89.61695
M204 S5000
G0 F9000 X130.617 Y80.837
M204 S500
G1 F1350 X119.286 Y69.506 E91.66358
M204 S5000
G0 F9000 X119.286 Y71.769
M204 S500
G1 F1350 X130.617 Y83.099 E93.71012
M204 S5000
G0 F9000 X130.617 Y85.362
M204 S500
G1 F1350 X119.286 Y74.031 E95.75674
M204 S5000
G0 F9000 X119.286 Y76.294
M204 S500
G1 F1350 X130.617 Y87.625 E97.80337
M204 S5000
G0 F9000 X130.617 Y89.888
M204 S500
G1 F1350 X119.286 Y78.557 E99.84999
M204 S5000
G0 F9000 X119.286 Y80.82
M204 S500
G1 F1350 X130.617 Y92.15 E101.89653
M204 S5000
G0 F9000 X130.617 Y94.413
M204 S500
G1 F1350 X119.286 Y83.082 E103.94316
M204 S5000
G0 F9000 X119.286 Y85.345
M204 S500
G1 F1350 X130.617 Y96.676 E105.98978
M204 S5000
G0 F9000 X130.617 Y98.939
M204 S500
G1 F1350 X119.286 Y87.608 E108.03641
M204 S5000
G0 F9000 X119.286 Y89.871
M204 S500
G1 F1350 X130.617 Y101.201 E110.08294
M204 S5000
G0 F9000 X130.617 Y103.464
M204 S500
G1 F1350 X119.286 Y92.133 E112.12957
M204 S5000
G0 F9000 X119.286 Y94.396
M204 S500
G1 F1350 X130.617 Y105.727 E114.1762
M204 S5000
G0 F9000 X130.617 Y107.99
M204 S500
G1 F1350 X119.286 Y96.659 E116.22282
M204 S5000
G0 F9000 X119.286 Y98.922
M204 S500
G1 F1350 X130.617 Y110.252 E118.26936
M204 S5000
G0 F9000 X130.617 Y112.515
M204 S500
G1 F1350 X119.286 Y101.184 E120.31598
M204 S5000
G0 F9000 X119.286 Y103.447
M204 S500
G1 F1350 X130.617 Y114.778 E122.36261
M204 S5000
G0 F9000 X130.617 Y117.041
M204 S500
G1 F1350 X119.286 Y105.71 E124.40923
M204 S5000
G0 F9000 X119.286 Y107.973
M204 S500
G1 F1350 X130.617 Y119.303 E126.45577
M204 S5000
G0 F9000 X130.617 Y121.566
M204 S500
G1 F1350 X119.286 Y110.235 E128.5024
M204 S5000
G0 F9000 X119.286 Y112.498
M204 S500
G1 F1350 X130.617 Y123.829 E130.54902
M204 S5000
G0 F9000 X130.617 Y126.091
M204 S500
G1 F1350 X119.286 Y114.761 E132.59556
M204 S5000
G0 F9000 X119.286 Y117.024
M204 S500
G1 F1350 X130.617 Y128.354 E134.64209
M204 S5000
G0 F9000 X130.617 Y130.617
M204 S500
G1 F1350 X119.286 Y119.286 E136.68872
M204 S5000
G0 F9000 X119.286 Y121.549
M204 S500
G1 F1350 X130.617 Y132.88 E138.73534
M204 S5000
G0 F9000 X130.617 Y135.142
M204 S500
G1 F1350 X119.286 Y123.812 E140.78188
M204 S5000
G0 F9000 X119.286 Y126.075
M204 S500
G1 F1350 X130.617 Y137.405 E142.82842
M204 S5000
G0 F9000 X130.617 Y139.668
M204 S500
G1 F1350 X119.286 Y128.337 E144.87504
M204 S5000
G0 F9000 X119.286 Y130.6
M204 S500
G1 F1350 X130.617 Y141.931 E146.92167
M204 S5000
G0 F9000 X130.617 Y144.193
M204 S500
G1 F1350 X119.286 Y132.863 E148.9682
M204 S5000
G0 F9000 X119.286 Y135.125
M204 S500
G1 F1350 X130.617 Y146.456 E151.01483
M204 S5000
G0 F9000 X130.617 Y148.719
M204 S500
G1 F1350 X119.286 Y137.388 E153.06146
M204 S5000
G0 F9000 X119.286 Y139.651
M204 S500
G1 F1350 X130.617 Y150.982 E155.10808
M204 S5000
G0 F9000 X130.617 Y153.244
M204 S500
G1 F1350 X119.286 Y141.914 E157.15462
M204 S5000
G0 F9000 X119.286 Y144.176
M204 S500
G1 F1350 X130.617 Y155.507 E159.20124
M204 S5000
G0 F9000 X130.608 Y157.761
M204 S500
G1 F1350 X119.286 Y146.439 E161.24624
M204 S5000
G0 F9000 X119.286 Y148.702
M204 S500
G1 F1350 X130.289 Y159.705 E163.23363
M204 S5000
G0 F9000 X129.92 Y161.598
M204 S500
G1 F1350 X119.286 Y150.965 E165.15427
M204 S5000
G0 F9000 X119.286 Y153.227
M204 S500
G1 F1350 X129.551 Y163.492 E167.00835
M204 S5000
G0 F9000 X129.182 Y165.385
M204 S500
G1 F1350 X119.286 Y155.49 E168.79569
M204 S5000
G0 F9000 X119.295 Y157.761
M204 S500
G1 F1350 X128.812 Y167.279 E170.51476
M204 S5000
G0 F9000 X128.443 Y169.173
M204 S500
G1 F1350 X119.766 Y160.496 E172.08202
M204 S5000
G0 F9000 X120.309 Y163.301
M204 S500
G1 F1350 X128.061 Y171.054 E173.48229
M204 S5000
G0 F9000 X127.3 Y172.555
M204 S500
G1 F1350 X120.851 Y166.106 E174.64712
M204 S5000
G0 F9000 X121.393 Y168.911
M204 S500
G1 F1350 X125.924 Y173.441 E175.46543
M204 S5000
G0 F9000 X123.43 Y173.21
M104 S230
M204 S500
G1 F1350 X122.137 Y171.918 E175.69888
M204 S5000
G0 F300 X122.137 Y171.918 Z0.864
G0 F9000 X127.156 Y172.708
;TIME_ELAPSED:69.656903
;LAYER:-4
M204 S500
;TYPE:SUPPORT
G1 F1350 X127.567 Y172.246 E175.7976
G1 X126.9 Y172.912 E175.94808
G1 X126.418 Y173.24 E176.04116
G1 X125.852 Y173.471 E176.13875
G1 X125.424 Y173.567 E176.20878
G1 X124.805 Y173.593 E176.30769
G1 X128.253 Y170.145 E177.08617
G1 X128.595 Y168.388 E177.37194
G1 X123.653 Y173.33 E178.48773
G1 X123.515 Y173.28 E178.51116
G1 X123.011 Y172.951 E178.60725
G1 X122.801 Y172.768 E178.65172
G1 X128.938 Y166.632 E180.0372
G1 X129.281 Y164.875 E180.323
G1 X122.174 Y171.981 E181.92749
G1 X122.011 Y171.698 E181.97963
G1 X121.795 Y170.946 E182.10454
G1 X129.623 Y163.118 E183.87192
G1 X129.965 Y161.362 E184.15753
G1 X121.56 Y169.767 E186.05519
G1 X121.331 Y168.582 E186.24787
G1 X130.308 Y159.605 E188.27468
G1 X130.553 Y158.347 E188.47929
G1 X130.595 Y157.904 E188.55033
G1 X121.101 Y167.397 E190.69375
G1 X120.872 Y166.212 E190.88643
G1 X130.617 Y156.467 E193.08663
G1 X130.617 Y155.053 E193.31237
G1 X120.643 Y165.027 E195.56428
G1 X120.414 Y163.842 E195.75696
G1 X130.617 Y153.639 E198.06057
G1 X130.617 Y152.225 E198.28631
G1 X120.184 Y162.657 E200.64173
G1 X119.955 Y161.472 E200.83441
G1 X130.617 Y150.811 E203.24154
G1 X130.617 Y149.396 E203.46744
G1 X119.726 Y160.287 E205.92638
G1 X119.497 Y159.102 E206.11907
G1 X130.617 Y147.982 E208.62971
G1 X130.617 Y146.568 E208.85545
G1 X119.306 Y157.879 E211.40922
G1 X119.286 Y157.677 E211.44163
G1 X119.287 Y156.484 E211.63209
G1 X130.617 Y145.154 E214.19014
G1 X130.617 Y143.739 E214.41605
G1 X119.287 Y155.069 E216.9741
G1 X119.287 Y153.655 E217.19985
G1 X130.617 Y142.325 E219.7579
G1 X130.617 Y140.911 E219.98365
G1 X119.287 Y152.241 E222.5417
G1 X119.287 Y150.827 E222.76745
G1 X130.617 Y139.497 E225.3255
G1 X130.617 Y138.083 E225.55124
G1 X119.287 Y149.413 E228.1093
G1 X119.287 Y147.998 E228.3352
G1 X130.617 Y136.668 E230.89326
G1 X130.617 Y135.254 E231.119
G1 X119.287 Y146.584 E233.67706
G1 X119.287 Y145.17 E233.9028
G1 X130.617 Y133.84 E236.46086
G1 X130.617 Y132.426 E236.6866
G1 X119.287 Y143.756 E239.24466
G1 X119.287 Y142.342 E239.4704
G1 X130.617 Y131.012 E242.02846
G1 X130.617 Y129.597 E242.25436
G1 X119.287 Y140.927 E244.81242
G1 X119.287 Y139.513 E245.03816
G1 X130.617 Y128.183 E247.59622
G1 X130.617 Y126.769 E247.82196
G1 X119.287 Y138.099 E250.38002
G1 X119.287 Y136.685 E250.60576
G1 X130.617 Y125.355 E253.16382
G1 X130.617 Y123.94 E253.38972
G1 X119.287 Y135.27 E255.94778
G1 X119.287 Y133.856 E256.17352
G1 X130.617 Y122.526 E258.73158
G1 X130.617 Y121.112 E258.95732
G1 X119.287 Y132.442 E261.51538
G1 X119.287 Y131.028 E261.74112
G1 X130.617 Y119.698 E264.29918
G1 X130.617 Y118.284 E264.52492
G1 X119.287 Y129.614 E267.08298
G1 X119.287 Y128.199 E267.30888
G1 X130.617 Y116.869 E269.86694
G1 X130.616 Y115.456 E270.09252
G1 X119.287 Y126.785 E272.65035
G1 X119.287 Y125.371 E272.87609
G1 X130.616 Y114.042 E275.43393
G1 X130.616 Y112.627 E275.65983
G1 X119.287 Y123.957 E278.21777
G1 X119.287 Y122.543 E278.44352
G1 X130.616 Y111.213 E281.00146
G1 X130.616 Y109.799 E281.2272
G1 X119.287 Y121.128 E283.78503
G1 X119.287 Y119.714 E284.01078
G1 X130.616 Y108.385 E286.56861
G1 X130.616 Y106.971 E286.79435
G1 X119.287 Y118.3 E289.35218
G1 X119.287 Y116.886 E289.57792
G1 X130.616 Y105.556 E292.13587
G1 X130.616 Y104.142 E292.36161
G1 X119.287 Y115.471 E294.91944
G1 X119.287 Y114.057 E295.14519
G1 X130.616 Y102.728 E297.70302
G1 X130.616 Y101.314 E297.92876
G1 X119.287 Y112.643 E300.48659
G1 X119.287 Y111.229 E300.71233
G1 X130.616 Y99.9 E303.27016
G1 X130.616 Y98.485 E303.49607
G1 X119.287 Y109.815 E306.05401
G1 X119.287 Y108.4 E306.27991
G1 X130.616 Y97.071 E308.83774
G1 X130.616 Y95.657 E309.06349
G1 X119.287 Y106.986 E311.62132
G1 X119.287 Y105.572 E311.84706
G1 X130.616 Y94.243 E314.40489
G1 X130.616 Y92.828 E314.6308
G1 X119.287 Y104.158 E317.18874
G1 X119.287 Y102.744 E317.41448
G1 X130.616 Y91.414 E319.97243
G1 X130.616 Y90 E320.19817
G1 X119.287 Y101.329 E322.756
G1 X119.287 Y99.915 E322.98174
G1 X130.616 Y88.586 E325.53957
G1 X130.616 Y87.172 E325.76532
G1 X119.287 Y98.501 E328.32315
G1 X119.287 Y97.087 E328.54889
G1 X130.616 Y85.757 E331.10684
G1 X130.616 Y84.343 E331.33258
G1 X119.287 Y95.672 E333.89041
G1 X119.287 Y94.258 E334.11615
G1 X130.616 Y82.929 E336.67398
G1 X130.616 Y81.515 E336.89973
G1 X119.287 Y92.844 E339.45756
G1 X119.287 Y91.43 E339.6833
G1 X130.616 Y80.101 E342.24113
G1 X130.616 Y78.686 E342.46703
G1 X119.287 Y90.016 E345.02498
G1 X119.287 Y88.601 E345.25088
G1 X130.616 Y77.272 E347.80871
G1 X130.616 Y75.858 E348.03445
G1 X119.287 Y87.187 E350.59229
G1 X119.287 Y85.773 E350.81803
G1 X130.616 Y74.444 E353.37586
G1 X130.616 Y73.03 E353.6016
G1 X119.287 Y84.359 E356.15943
G1 X119.287 Y82.945 E356.38518
G1 X130.616 Y71.616 E358.94301
G1 X130.616 Y70.202 E359.16875
G1 X119.287 Y81.53 E361.72647
G1 X119.287 Y80.116 E361.95221
G1 X130.616 Y68.788 E364.50993
G1 X130.616 Y67.373 E364.73583
G1 X119.287 Y78.702 E367.29366
G1 X119.287 Y77.288 E367.51941
G1 X130.616 Y65.959 E370.07724
G1 X130.616 Y64.545 E370.30298
G1 X119.287 Y75.873 E372.8607
G1 X119.287 Y74.459 E373.08644
G1 X130.616 Y63.131 E375.64416
G1 X130.616 Y61.716 E375.87006
G1 X119.287 Y73.045 E378.42789
G1 X119.287 Y71.631 E378.65364
G1 X130.616 Y60.302 E381.21147
G1 X130.616 Y58.888 E381.43721
G1 X119.287 Y70.217 E383.99504
G1 X119.287 Y68.802 E384.22094
G1 X130.616 Y57.474 E386.77866
G1 X130.616 Y56.06 E387.00441
G1 X119.287 Y67.388 E389.56212
G1 X119.287 Y65.974 E389.78787
G1 X130.616 Y54.645 E392.3457
G1 X130.616 Y53.231 E392.57144
G1 X119.287 Y64.56 E395.12927
G1 X119.287 Y63.146 E395.35502
G1 X130.616 Y51.817 E397.91285
G1 X130.616 Y50.403 E398.13859
G1 X119.287 Y61.731 E400.69631
G1 X119.287 Y60.317 E400.92205
G1 X130.616 Y48.989 E403.47977
G1 X130.616 Y47.574 E403.70567
G1 X119.287 Y58.903 E406.2635
G1 X119.287 Y57.489 E406.48925
G1 X130.616 Y46.16 E409.04708
G1 X130.616 Y44.746 E409.27282
G1 X119.287 Y56.074 E411.83054
G1 X119.287 Y54.66 E412.05628
G1 X130.616 Y43.332 E414.614
G1 X130.616 Y41.917 E414.8399
G1 X119.287 Y53.246 E417.39773
G1 X119.287 Y51.832 E417.62348
G1 X130.616 Y40.503 E420.18131
G1 X130.616 Y39.089 E420.40705
G1 X119.287 Y50.418 E422.96488
G1 X119.287 Y49.003 E423.19078
G1 X130.616 Y37.675 E425.7485
G1 X130.616 Y36.261 E425.97424
G1 X119.287 Y47.589 E428.53196
G1 X119.287 Y46.175 E428.75771
G1 X130.616 Y34.846 E431.31554
G1 X130.616 Y33.432 E431.54128
G1 X119.287 Y44.761 E434.09911
G1 X119.287 Y43.347 E434.32485
G1 X130.582 Y32.052 E436.87501
G1 X130.551 Y31.725 E436.92745
G1 X130.379 Y30.841 E437.07122
G1 X119.287 Y41.932 E439.57543
G1 X119.287 Y40.518 E439.80117
G1 X130.148 Y29.657 E442.25334
G1 X129.917 Y28.474 E442.44577
G1 X119.287 Y39.104 E444.84579
G1 X119.287 Y37.69 E445.07153
G1 X129.686 Y27.29 E447.4195
G1 X129.456 Y26.107 E447.6119
G1 X119.287 Y36.275 E449.90772
G1 X119.287 Y34.861 E450.13346
G1 X129.225 Y24.923 E452.37723
G1 X128.995 Y23.739 E452.56979
G1 X119.287 Y33.447 E454.76164
G1 X119.287 Y32.399 E454.92895
G1 X119.326 Y31.994 E454.99391
G1 X128.764 Y22.556 E457.12479
G1 X128.533 Y21.373 E457.31722
G1 X119.632 Y30.274 E459.32687
G1 X119.971 Y28.52 E459.61207
G1 X128.303 Y20.189 E461.49314
G1 X128.072 Y19.005 E461.68572
G1 X120.31 Y26.767 E463.43821
G1 X120.65 Y25.013 E463.72344
G1 X127.659 Y18.004 E465.30592
G1 X127.314 Y17.529 E465.39964
G1 X127.011 Y17.237 E465.46682
G1 X120.988 Y23.26 E466.82668
G1 X121.327 Y21.508 E467.11157
G1 X126.129 Y16.706 E468.19575
G1 X125.729 Y16.563 E468.26357
G1 X125.193 Y16.482 E468.35011
G1 X124.941 Y16.479 E468.39035
G1 X121.666 Y19.754 E469.12977
G1 X121.782 Y19.151 E469.2278
G1 X121.983 Y18.468 E469.34147
G1 X122.172 Y18.08 E469.41037
G1 X122.414 Y17.718 E469.47989
G1 X122.844 Y17.26 E469.58018
G1 X123.202 Y16.99 E469.65177
G1 X123.585 Y16.775 E469.72189
G1 X124.16 Y16.555 E469.82018
G1 X124.744 Y16.477 E469.91424
M204 S5000
